X: 2
T: Auld Lang Syne
R: march
M: 4/4
L: 1/8
K: Gmaj
D2|"G" G3 G "Em" G2 B2|"Am" A3 G "D" A2 "B7" B>A|"Em" G3 G "G" B2 d2|"C" e6|
"C" e2|"G" d3 B "Em" B2 G2|"Am" A3 G "D" A2 "B7" B>A|"Em" G3 E "C" E2 "D" D2|"G" G3G3||
"C" e2|"G" d3 B "Em" B2 G2|"Am" A3 G "D" A2 "D7" e2 |"G" d3 B "Em" B2 d2|"C" e3e3|
"C" g2|"G" d3 B "Em" B2 G2|"Am" A3 G "D" A2 "B7" B>A|"Em" G3 "C" E E2 "D" D2|"G" G4G3||

